resources/images/collections/crown-badge.svg

<svg width="40" height="40" viewBox="0 0 40 40" fill="none" xmlns="http://www.w3.org/2000/svg">
  <circle cx="20" cy="20" r="20" fill="#5060EE" />
  <circle cx="20.0007" cy="19.9997" r="16.6667" fill="#2C39AE" />
  <path
    d="M13.7777 16.2278C13.979 15.9801 14.3054 15.9801 14.5067 16.2278L17.0963 19.415C17.2976 19.6628 17.2976 20.0645 17.0963 20.3123L14.5067 23.4995C14.3054 23.7472 13.979 23.7472 13.7777 23.4995L11.1881 20.3123C10.9868 20.0645 10.9868 19.6628 11.1881 19.415L13.7777 16.2278Z"
    fill="#6B7AFF" />
  <path
    d="M25.0834 16.2278C25.2847 15.9801 25.6111 15.9801 25.8124 16.2278L28.4021 19.415C28.6034 19.6628 28.6034 20.0645 28.4021 20.3123L25.8124 23.4995C25.6111 23.7472 25.2847 23.7472 25.0834 23.4995L22.4938 20.3123C22.2925 20.0645 22.2925 19.6628 22.4938 19.415L25.0834 16.2278Z"
    fill="#6B7AFF" />
  <path
    d="M31.262 16.25V24.9968C31.262 25.4581 30.8871 25.8317 30.4257 25.8301L9.16247 25.7563C8.70337 25.7547 8.33203 25.3821 8.33203 24.9229V16.1704C8.33203 15.3386 9.41659 15.0201 9.86635 15.7197L13.3618 21.1571C13.6902 21.668 14.4375 21.6672 14.7648 21.1555L19.022 14.4998C19.348 13.99 20.0917 13.9869 20.4221 14.4938L24.8265 21.2513C25.1565 21.7576 25.8988 21.7553 26.2256 21.2469L29.7277 15.7993C30.1774 15.0997 31.262 15.4183 31.262 16.25Z"
    fill="#CFD4FF" />
  <circle cx="19.7289" cy="21.7894" r="1.83824" fill="#8692FF" />
</svg>

<svg width="40" height="40" viewBox="0 0 40 40" fill="none" xmlns="http://www.w3.org/2000/svg"><circle cx="20" cy="20" r="20" fill="#5060EE"/><circle cx="20.0007" cy="19.9997" r="16.6667" fill="#2C39AE"/><path d="M13.778 16.228c.201-.248.527-.248.729 0l2.59 3.187a.742.742 0 0 1 0 .897l-2.59 3.188c-.202.247-.528.247-.73 0l-2.589-3.188a.742.742 0 0 1 0-.897l2.59-3.187ZM25.083 16.228c.202-.248.528-.248.73 0l2.59 3.187a.742.742 0 0 1 0 .897l-2.59 3.188c-.202.247-.528.247-.73 0l-2.59-3.188a.742.742 0 0 1 0-.897l2.59-3.187Z" fill="#6B7AFF"/><path d="M31.262 16.25v8.747a.833.833 0 0 1-.836.833l-21.264-.074a.833.833 0 0 1-.83-.833V16.17c0-.831 1.085-1.15 1.534-.45l3.496 5.437a.833.833 0 0 0 1.403-.002l4.257-6.655a.833.833 0 0 1 1.4-.006l4.404 6.757a.833.833 0 0 0 1.4-.004l3.502-5.448c.45-.7 1.534-.38 1.534.451Z" fill="#CFD4FF"/><circle cx="19.7289" cy="21.7894" r="1.83824" fill="#8692FF"/></svg>
